public/images/flags/AU.svg

<svg width="21" height="15" viewBox="0 0 21 15" fill="none" xmlns="http://www.w3.org/2000/svg">
<path d="M2 0H19C19.5304 0 20.0391 0.210714 20.4142 0.585787C20.7893 0.96086 21 1.46957 21 2V13C21 13.5304 20.7893 14.0391 20.4142 14.4142C20.0391 14.7893 19.5304 15 19 15H2C1.46957 15 0.960858 14.7893 0.585785 14.4142C0.210712 14.0391 0 13.5304 0 13V2C0 1.46957 0.210712 0.96086 0.585785 0.585787C0.960858 0.210714 1.46957 0 2 0Z" fill="#43458B"/>
<path d="M0 5.664L3.498 3.264L3.49899 3.263H3.50101V3.264L8.92599 6.986H7.159L3.5 4.476L0 6.877V5.664ZM9 0.0950003V1.308L5.50101 3.708L5.5 3.709L5.49899 3.708L0.740997 0.444C1.05952 0.183233 1.45131 0.0280582 1.862 0L5.5 2.496L9 0.0950003Z" fill="#F6F9FC"/>
<path d="M8.909 7L5.25 4.49L1.591 7H0V6.879L5.248 3.278L5.24899 3.277H5.25101V3.278L9 5.85V7H8.909ZM3.75101 3.722V3.723H3.74899V3.722L0.147995 1.252C0.276776 0.938135 0.483657 0.662406 0.748993 0.451L3.75 2.51L7.409 0H9V0.121L3.75101 3.722Z" fill="#E25950"/>
<path d="M9 4.625H5.625V7H3.375V4.625H0V2.375H3.375V0H5.625V2.375H9V4.625Z" fill="#F6F9FC"/>
<path d="M9 3.998H5V7H4V3.998H0V3.002H4V0H5V3.002H9V3.998Z" fill="#E25950"/>
<path d="M17.24 6.5C17.0917 6.5 16.9466 6.45601 16.8233 6.3736C16.7 6.29119 16.6038 6.17406 16.5471 6.03701C16.4903 5.89997 16.4755 5.74917 16.5044 5.60368C16.5333 5.4582 16.6048 5.32456 16.7097 5.21967C16.8146 5.11478 16.9482 5.04335 17.0937 5.01441C17.2392 4.98547 17.39 5.00033 17.527 5.05709C17.664 5.11386 17.7812 5.20999 17.8636 5.33332C17.946 5.45666 17.99 5.60166 17.99 5.75C17.99 5.94891 17.911 6.13968 17.7703 6.28033C17.6297 6.42098 17.4389 6.5 17.24 6.5ZM15.99 9.5C15.8911 9.5 15.7944 9.47068 15.7122 9.41574C15.63 9.3608 15.5659 9.2827 15.5281 9.19134C15.4902 9.09998 15.4803 8.99945 15.4996 8.90245C15.5189 8.80546 15.5665 8.71637 15.6364 8.64645C15.7064 8.57652 15.7955 8.5289 15.8924 8.50961C15.9894 8.49031 16.09 8.50022 16.1813 8.53806C16.2727 8.57591 16.3508 8.63999 16.4057 8.72222C16.4607 8.80444 16.49 8.90111 16.49 9C16.49 9.13261 16.4373 9.25979 16.3435 9.35355C16.2498 9.44732 16.1226 9.5 15.99 9.5ZM14.74 4.5C14.5917 4.5 14.4466 4.45601 14.3233 4.3736C14.2 4.29119 14.1038 4.17406 14.0471 4.03701C13.9903 3.89997 13.9755 3.74917 14.0044 3.60368C14.0333 3.4582 14.1048 3.32456 14.2097 3.21967C14.3146 3.11478 14.4482 3.04335 14.5937 3.01441C14.7392 2.98547 14.89 3.00033 15.027 3.05709C15.164 3.11386 15.2812 3.20999 15.3636 3.33332C15.446 3.45666 15.49 3.60166 15.49 3.75C15.49 3.94891 15.411 4.13968 15.2703 4.28033C15.1297 4.42098 14.9389 4.5 14.74 4.5ZM11.74 7.5C11.5917 7.5 11.4466 7.45601 11.3233 7.3736C11.2 7.29119 11.1038 7.17406 11.0471 7.03701C10.9903 6.89997 10.9755 6.74917 11.0044 6.60368C11.0333 6.4582 11.1048 6.32456 11.2097 6.21967C11.3146 6.11478 11.4482 6.04335 11.5937 6.01441C11.7392 5.98547 11.89 6.00033 12.027 6.05709C12.164 6.11386 12.2812 6.20999 12.3636 6.33332C12.446 6.45666 12.49 6.60166 12.49 6.75C12.49 6.94891 12.411 7.13968 12.2703 7.28033C12.1297 7.42098 11.9389 7.5 11.74 7.5ZM14.74 11.5C14.8883 11.5 15.0333 11.544 15.1567 11.6264C15.28 11.7088 15.3761 11.8259 15.4329 11.963C15.4897 12.1 15.5045 12.2508 15.4756 12.3963C15.4466 12.5418 15.3752 12.6754 15.2703 12.7803C15.1654 12.8852 15.0318 12.9566 14.8863 12.9856C14.7408 13.0145 14.59 12.9997 14.453 12.9429C14.3159 12.8861 14.1988 12.79 14.1164 12.6667C14.034 12.5433 13.99 12.3983 13.99 12.25C13.99 12.0511 14.069 11.8603 14.2097 11.7197C14.3503 11.579 14.5411 11.5 14.74 11.5ZM3.99 12.523L3.30599 13.176C3.27935 13.2008 3.2458 13.2168 3.2098 13.2221C3.1738 13.2273 3.13705 13.2214 3.10447 13.2052C3.07189 13.1891 3.04501 13.1633 3.02741 13.1315C3.00982 13.0996 3.00235 13.0632 3.00599 13.027L3.074 12.068L2.15199 11.922C2.11617 11.9153 2.08313 11.8982 2.05695 11.8728C2.03077 11.8475 2.0126 11.815 2.00472 11.7794C1.99684 11.7439 1.99959 11.7067 2.01261 11.6727C2.02564 11.6387 2.04837 11.6092 2.078 11.588L2.848 11.044L2.38299 10.21C2.36428 10.1786 2.35545 10.1423 2.35764 10.1059C2.35984 10.0694 2.37296 10.0345 2.39529 10.0056C2.41762 9.97664 2.44813 9.95512 2.48286 9.94379C2.51758 9.93245 2.5549 9.93183 2.58999 9.942L3.48199 10.224L3.82499 9.329C3.83709 9.29464 3.85957 9.26488 3.88931 9.24383C3.91904 9.22278 3.95456 9.21148 3.99099 9.21148C4.02742 9.21148 4.06296 9.22278 4.09269 9.24383C4.12242 9.26488 4.14489 9.29464 4.15699 9.329L4.49999 10.224L5.39199 9.942C5.42707 9.93183 5.46441 9.93245 5.49914 9.94379C5.53386 9.95512 5.56438 9.97664 5.58671 10.0056C5.60904 10.0345 5.62214 10.0694 5.62434 10.1059C5.62653 10.1423 5.6177 10.1786 5.59899 10.21L5.134 11.044L5.904 11.588C5.93362 11.6092 5.95634 11.6387 5.96937 11.6727C5.98239 11.7067 5.98514 11.7439 5.97726 11.7794C5.96937 11.815 5.95122 11.8475 5.92504 11.8728C5.89886 11.8982 5.86581 11.9153 5.82999 11.922L4.908 12.068L4.97599 13.027C4.97963 13.0632 4.97216 13.0996 4.95457 13.1315C4.93697 13.1633 4.91009 13.1891 4.87751 13.2052C4.84493 13.2214 4.8082 13.2273 4.77219 13.2221C4.73619 13.2168 4.70263 13.2008 4.67599 13.176L3.99 12.523Z" fill="#F6F9FC"/>
</svg>

<svg width="21" height="15" fill="none" xmlns="http://www.w3.org/2000/svg"><path d="M2 0h17a2 2 0 0 1 2 2v11a2 2 0 0 1-2 2H2a2 2 0 0 1-2-2V2a2 2 0 0 1 2-2z" fill="#43458B"/><path d="M0 5.664l3.498-2.4.001-.001h.002v.001l5.425 3.722H7.159L3.5 4.476 0 6.877V5.664zM9 .095v1.213l-3.499 2.4-.001.001-.001-.001L.741.444C1.06.184 1.451.028 1.862 0L5.5 2.496 9 .095z" fill="#F6F9FC"/><path d="M8.909 7L5.25 4.49 1.591 7H0v-.121l5.248-3.601.001-.001h.002v.001L9 5.85V7h-.091zM3.751 3.722v.001h-.002v-.001L.148 1.252A1.99 1.99 0 0 1 .749.451L3.75 2.51 7.409 0H9v.121L3.751 3.722z" fill="#E25950"/><path d="M9 4.625H5.625V7h-2.25V4.625H0v-2.25h3.375V0h2.25v2.375H9v2.25z" fill="#F6F9FC"/><path d="M9 3.998H5V7H4V3.998H0v-.996h4V0h1v3.002h4v.996z" fill="#E25950"/><path d="M17.24 6.5a.75.75 0 1 1 0-1.5.75.75 0 0 1 0 1.5zm-1.25 3a.5.5 0 1 1 0-1 .5.5 0 0 1 0 1zm-1.25-5a.75.75 0 1 1 0-1.5.75.75 0 0 1 0 1.5zm-3 3a.75.75 0 1 1 0-1.5.75.75 0 0 1 0 1.5zm3 4a.75.75 0 1 1 0 1.5.75.75 0 0 1 0-1.5zM3.99 12.523l-.684.653a.18.18 0 0 1-.3-.149l.068-.959-.922-.146a.185.185 0 0 1-.074-.334l.77-.544-.465-.834a.182.182 0 0 1 .207-.268l.892.282.343-.895a.176.176 0 0 1 .332 0l.343.895.892-.282a.182.182 0 0 1 .207.268l-.465.834.77.544a.186.186 0 0 1-.074.334l-.922.146.068.959a.18.18 0 0 1-.3.149l-.686-.653z" fill="#F6F9FC"/></svg>
